**kern	**kern	**dynam
*part1	*part1	*part1
*staff2	*staff1	*
*I"Piano	*	*
*clefF4	*clefG2	*
*k[f#c#g#d#a#e#]	*k[f#c#g#d#a#e#]	*
=1	=1	=1
4.C#	8.BL 8.e#	.
.	16BK 16e#	.
.	8BJ 8e#	.
=	=	=
*	*^	*
(4.C#	(8.A#L 8.f#	4.f#	.
.	16BK 16g#	.	.
.	8c#J) 8a#	.	.
=	=	=	=
4.CC#	(8.G#L 8.e#	4.c#	.
.	16A#K 16f#	.	.
.	8BJ) 8g#	.	.
=	=	=	=
4FF#)	4A# 4f#	4A#	.
8r	8r	8ryy	.
*	*v	*v	*
=	=	=
8.E#L 8.A#	8.c#L 8.e#	p
16E#K 16A#	16c#K 16e#	.
8E#J 8A#	8c#J 8e#	.
=	=	=
4D# 4A#	4c# 4f#	.
8D# 8A#	8c# 8f#	.
=	=	=
8.D#L 8.G#	8.BL 8.e#	.
16D#K 16G#	16BK 16e#	.
8D#J 8G#	8BJ 8e#	.
=	=	=
4C# 4G#	4B 4e#	.
8C# 8G#	8B 8e#	.
=	=	=
*-	*-	*-
!!!system-decoration: {(s1,s2)}
